X: 61
T: The Heavens Are Speaking
N: Derived from pawnee61.krn
O: Oklahoma, U.S.A.
N: from Pawnee Music by Frances Densmore, 1926
Z: transcribed to **kern format by David Huron, August 2000
C: Skidi and Chaui Bands, 1919
L: 1/16
M: 2/4
Q: 1/4=88
K: E clef=bass
%%linebreak <none>
G G, [I:setbarnb 1]| 
G2> G2 G3 G | 
(G F) E2- E2 G G | 
F2> E2 E3 E | 
(E C) B,2- B,2 C C | 
B,2> B,2 G,3 G, | 
(G, F,) E,2- E,2 B, B, | 
A,6A,2 | 
F,4C,2 A, A,[M:3/4] | 
F,2> F,2E,4E, E,3 | 
E,12 | 
E,8z2 |]  



